assets/img/figure-stroke.svg

<svg width="335" height="384" viewBox="0 0 335 384" fill="none" xmlns="http://www.w3.org/2000/svg">
<path opacity="0.1" d="M97.966 331.397C97.966 360.344 121.816 382.5 149.084 382.5C176.351 382.5 200.202 360.344 200.202 331.397C200.202 302.45 176.351 280.295 149.084 280.295C120.095 280.295 97.966 302.418 97.966 331.397ZM50.6099 191.123C50.6099 220.07 74.4602 242.226 101.728 242.226C128.995 242.226 152.846 220.07 152.846 191.123C152.846 162.176 128.995 140.021 101.728 140.021C72.739 140.021 50.6099 162.144 50.6099 191.123ZM1.5 52.6027C1.5 81.5498 25.3503 103.705 52.6178 103.705C79.8853 103.705 103.736 81.5498 103.736 52.6027C103.736 23.6234 81.6066 1.5 52.6178 1.5C23.6291 1.5 1.5 23.6234 1.5 52.6027ZM231.264 331.397C231.264 360.344 255.115 382.5 282.382 382.5C311.371 382.5 333.5 360.377 333.5 331.397C333.5 302.418 311.371 280.295 282.382 280.295C253.393 280.295 231.264 302.418 231.264 331.397ZM183.908 191.123C183.908 220.07 207.759 242.226 235.026 242.226C264.015 242.226 286.144 220.103 286.144 191.123C286.144 162.144 264.015 140.021 235.026 140.021C206.037 140.021 183.908 162.144 183.908 191.123ZM134.798 52.6027C134.798 81.5498 158.649 103.705 185.916 103.705C213.184 103.705 237.034 81.5498 237.034 52.6027C237.034 23.6234 214.905 1.5 185.916 1.5C156.927 1.5 134.798 23.6234 134.798 52.6027Z" stroke="#F8AF19" stroke-width="3"/>
</svg>

<svg width="335" height="384" fill="none" xmlns="http://www.w3.org/2000/svg"><path opacity=".1" d="M97.966 331.397c0 28.947 23.85 51.103 51.118 51.103 27.267 0 51.118-22.156 51.118-51.103 0-28.947-23.851-51.102-51.118-51.102-28.989 0-51.118 22.123-51.118 51.102zM50.61 191.123c0 28.947 23.85 51.103 51.118 51.103 27.267 0 51.118-22.156 51.118-51.103 0-28.947-23.851-51.102-51.118-51.102-28.989 0-51.118 22.123-51.118 51.102zM1.5 52.603c0 28.947 23.85 51.102 51.118 51.102 27.267 0 51.118-22.155 51.118-51.102 0-28.98-22.13-51.103-51.118-51.103C23.629 1.5 1.5 23.623 1.5 52.603zm229.764 278.794c0 28.947 23.851 51.103 51.118 51.103 28.989 0 51.118-22.123 51.118-51.103 0-28.979-22.129-51.102-51.118-51.102s-51.118 22.123-51.118 51.102zm-47.356-140.274c0 28.947 23.851 51.103 51.118 51.103 28.989 0 51.118-22.123 51.118-51.103 0-28.979-22.129-51.102-51.118-51.102s-51.118 22.123-51.118 51.102zm-49.11-138.52c0 28.947 23.851 51.102 51.118 51.102 27.268 0 51.118-22.155 51.118-51.102 0-28.98-22.129-51.103-51.118-51.103s-51.118 22.123-51.118 51.103z" stroke="#F8AF19" stroke-width="3"/></svg>
